X:1
T: Clachnacudainn
T: The Cross of Inverness
R:Reel
Q: 232
K:G
M:4/4
L:1/8
|:G|DB, B,D EC CB|cB AG FD DE|DB, B,D EC CG|FD AF G2 GE|
DB, B,D EC CB|cB AG FE DC|B,D GD CE AE|FD AF G2 Gc|
g2 g2 ec ce|^cg ca fd d=c|Bg Bg ec c^g|a^g a^c d2 d=c|
B1/2c1/2d gd ec ce|^c1/2d1/2e ag fd dg1/2a1/2|bd Bg1/2f1/2 ec Ac|B1/2c1/2d DF G2:|
